assets/featuresBg5.svg

<svg width="570" height="197" viewBox="0 0 570 197" fill="none" xmlns="http://www.w3.org/2000/svg">
<g clip-path="url(#clip0)">
<rect x="5" y="5" width="560" height="187" fill="#FFC856" stroke="#007550" stroke-width="10"/>
<rect width="570" height="197" fill="#FFC856"/>
<g style="mix-blend-mode:multiply" opacity="0.1">
<path d="M4.1622 122.839L14.2186 120.144L19.0061 144.716L12.3018 146.512L4.1622 122.839ZM19.2039 158.862C17.7261 159.258 16.36 159.134 15.1056 158.49C13.8778 157.8 13.0848 156.787 12.7265 155.45C12.3682 154.113 12.5578 152.874 13.2952 151.733C14.0233 150.558 15.1442 149.767 16.6581 149.361C18.172 148.956 19.5381 149.08 20.7565 149.734C21.9654 150.353 22.749 151.331 23.1073 152.668C23.4656 154.006 23.2674 155.284 22.5127 156.505C21.7847 157.681 20.6818 158.466 19.2039 158.862Z" fill="#001E20"/>
</g>
<g style="mix-blend-mode:multiply" opacity="0.04">
<path d="M310.577 113.226L334.9 127.269L297.162 183.272L280.946 173.91L310.577 113.226ZM270.553 210.635C266.979 208.571 264.61 205.728 263.447 202.106C262.42 198.449 262.84 195.004 264.707 191.769C266.574 188.535 269.299 186.534 272.881 185.765C276.513 184.911 280.159 185.541 283.821 187.655C287.482 189.769 289.851 192.612 290.927 196.184C292.053 199.671 291.682 203.031 289.815 206.265C287.947 209.499 285.13 211.561 281.362 212.449C277.731 213.303 274.128 212.698 270.553 210.635Z" fill="#001E20"/>
</g>
<g style="mix-blend-mode:overlay" opacity="0.6">
<g style="mix-blend-mode:overlay" opacity="0.5">
<path d="M445.985 164.84C450.018 156.405 455.223 150.355 461.601 146.688C468.21 142.94 476.767 139.548 487.274 136.513C495.309 134.214 501.519 131.906 505.902 129.588C510.517 127.19 513.945 123.647 516.186 118.962C519.322 112.402 519.196 105.817 515.806 99.2067C512.416 92.5965 506.252 87.1544 497.314 82.8803C480.379 74.7822 464.723 74.6842 450.348 82.5865L434.59 56.9169C445.739 50.9262 457.803 48.0594 470.781 48.3165C483.834 48.4174 497.574 51.917 512 58.8155C529.563 67.2135 541.689 77.7136 548.379 90.3156C555.301 102.836 555.587 115.735 549.239 129.01C546.177 135.414 542.391 140.512 537.88 144.304C533.527 148.171 529.039 151.11 524.416 153.121C519.868 154.977 514.118 156.929 507.166 158.977C498.668 161.438 491.958 163.987 487.037 166.623C482.273 169.334 478.546 173.501 475.858 179.124L445.985 164.84ZM434.265 228.03C428.776 225.406 425.05 221.514 423.087 216.353C421.355 211.111 421.721 205.913 424.186 200.759C426.65 195.605 430.429 192.134 435.522 190.348C440.771 188.636 446.14 189.093 451.629 191.717C456.96 194.267 460.53 198.084 462.336 203.17C464.3 208.331 464.049 213.488 461.585 218.642C459.12 223.796 455.226 227.307 449.901 229.175C444.808 230.961 439.596 230.58 434.265 228.03Z" fill="white"/>
</g>
<g style="mix-blend-mode:overlay" opacity="0.4">
<path d="M343.105 42.8624C342.18 40.5885 341.925 38.5082 342.341 36.6217C342.781 34.6758 343.635 32.4145 344.903 29.8377C345.877 27.8712 346.526 26.2575 346.851 24.9966C347.201 23.6765 347.119 22.3847 346.605 21.1214C345.886 19.3528 344.585 18.2134 342.702 17.7031C340.819 17.1929 338.673 17.4278 336.263 18.408C331.697 20.265 328.911 23.2877 327.904 27.4759L320.134 25.9984C320.942 22.7745 322.517 19.9252 324.861 17.4505C327.188 14.9337 330.297 12.8843 334.186 11.3024C338.921 9.37653 343.104 8.87787 346.733 9.8064C350.388 10.6756 352.943 12.8999 354.399 16.4793C355.101 18.2058 355.422 19.8421 355.361 21.3883C355.342 22.9172 355.12 24.3083 354.693 25.5614C354.25 26.7724 353.612 28.234 352.781 29.9462C351.757 32.0313 351.066 33.7847 350.708 35.2063C350.392 36.6106 350.542 38.0708 351.159 39.5868L343.105 42.8624ZM353.304 56.3082C351.824 56.9101 350.409 56.9455 349.06 56.4146C347.736 55.8243 346.791 54.8344 346.226 53.4447C345.661 52.0551 345.655 50.7079 346.209 49.4032C346.804 48.0813 347.842 47.1194 349.322 46.5176C350.759 45.933 352.131 45.9147 353.438 46.4629C354.787 46.9938 355.745 47.9541 356.31 49.3437C356.875 50.7334 356.868 52.1102 356.29 53.4742C355.736 54.7789 354.741 55.7236 353.304 56.3082Z" fill="white"/>
</g>
<g style="mix-blend-mode:overlay" opacity="0.6">
<path d="M507.215 14.7669C506.738 12.9879 506.743 11.4155 507.228 10.0498C507.737 8.6423 508.583 7.03848 509.767 5.23837C510.675 3.86517 511.309 2.72439 511.669 1.81604C512.052 0.865883 512.112 -0.10336 511.847 -1.09169C511.476 -2.47535 510.614 -3.44483 509.26 -4.00012C507.906 -4.55541 506.286 -4.58053 504.401 -4.07547C500.828 -3.11851 498.473 -1.12801 497.333 1.89604L491.686 0.0720281C492.588 -2.2527 494.026 -4.22696 496.002 -5.85076C497.969 -7.50751 500.474 -8.74347 503.517 -9.55865C507.221 -10.551 510.381 -10.5325 512.997 -9.50304C515.636 -8.51538 517.331 -6.62141 518.082 -3.82114C518.443 -2.47042 518.53 -1.2224 518.34 -0.077081C518.184 1.05938 517.888 2.07418 517.454 2.96731C517.011 3.82749 516.4 4.85614 515.622 6.05327C514.665 7.51008 513.987 8.75094 513.588 9.77585C513.222 10.7919 513.198 11.8929 513.516 13.0789L507.215 14.7669ZM513.554 25.7268C512.397 26.0369 511.34 25.9315 510.385 25.4105C509.455 24.8477 508.844 24.0227 508.552 22.9356C508.261 21.8484 508.382 20.845 508.916 19.9253C509.482 18.9967 510.345 18.3774 511.502 18.0672C512.627 17.766 513.65 17.8803 514.572 18.4101C515.527 18.9311 516.15 19.7351 516.441 20.8223C516.732 21.9095 516.599 22.9338 516.041 23.8953C515.508 24.815 514.679 25.4255 513.554 25.7268Z" fill="white"/>
</g>
</g>
<g style="mix-blend-mode:overlay" opacity="0.3">
<g style="mix-blend-mode:overlay" opacity="0.6">
<path d="M56.1523 176.479C53.033 174.027 51.0095 171.31 50.0818 168.329C49.142 165.244 48.5304 161.386 48.247 156.753C48.0397 153.212 47.6593 150.426 47.1057 148.396C46.54 146.262 45.3906 144.514 43.6576 143.152C41.2315 141.244 38.4924 140.686 35.4404 141.478C32.3884 142.269 29.5631 144.317 26.9645 147.623C22.0407 153.887 20.5491 160.362 22.4896 167.048L10.3973 171.196C8.94952 166.023 8.88032 160.76 10.1897 155.409C11.4414 150.012 14.1643 144.646 18.3586 139.31C23.4648 132.815 28.9376 128.765 34.777 127.163C40.6044 125.456 45.9731 126.533 50.8832 130.393C53.2516 132.255 55.012 134.295 56.1645 136.515C57.3625 138.677 58.1639 140.808 58.5685 142.909C58.9154 144.964 59.1909 147.527 59.395 150.596C59.6266 154.344 60.0603 157.359 60.696 159.642C61.3773 161.866 62.7577 163.796 64.8373 165.431L56.1523 176.479ZM81.238 187.19C79.6424 189.22 77.6848 190.403 75.3654 190.738C73.0338 190.969 70.9149 190.336 69.0086 188.837C67.1023 187.339 66.0152 185.452 65.7474 183.177C65.5251 180.844 66.2118 178.663 67.8075 176.633C69.3575 174.661 71.2695 173.536 73.5433 173.26C75.8628 172.925 77.9756 173.506 79.8819 175.005C81.7881 176.503 82.8813 178.442 83.1613 180.82C83.4292 183.095 82.7881 185.218 81.238 187.19Z" fill="white"/>
</g>
<g style="mix-blend-mode:overlay" opacity="0.5">
<path d="M133.364 147.043C131.841 137.819 132.644 129.879 135.773 123.221C139.045 116.364 144.119 108.683 150.995 100.178C156.266 93.6926 160.035 88.245 162.302 83.835C164.712 79.2259 165.494 74.3592 164.648 69.2349C163.464 62.0608 159.59 56.7345 153.026 53.2561C146.461 49.7777 138.292 48.8454 128.517 50.4593C109.995 53.5171 97.1043 62.4009 89.8436 77.1106L62.2262 65.0886C67.9366 53.7932 76.1855 44.5353 86.9729 37.3149C97.732 29.9236 111 24.9255 126.778 22.3207C145.985 19.1496 161.939 20.8145 174.64 27.3156C187.483 33.6175 195.104 44.028 197.501 58.5469C198.657 65.5502 198.472 71.8976 196.945 77.5891C195.59 83.2523 193.593 88.2318 190.955 92.5276C188.289 96.6526 184.693 101.545 180.166 107.206C174.608 114.089 170.566 120.021 168.041 125C165.688 129.95 165.018 135.5 166.034 141.649L133.364 147.043ZM159.937 205.561C153.935 206.552 148.652 205.494 144.087 202.387C139.665 199.082 136.989 194.61 136.059 188.974C135.128 183.337 136.239 178.328 139.391 173.947C142.715 169.538 147.378 166.838 153.381 165.847C159.212 164.885 164.324 165.971 168.717 169.106C173.282 172.212 176.029 176.584 176.96 182.221C177.891 187.858 176.708 192.966 173.412 197.546C170.26 201.927 165.768 204.598 159.937 205.561Z" fill="white"/>
</g>
<g style="mix-blend-mode:overlay" opacity="0.6">
<path d="M15.9532 62.8306C14.523 58.8864 14.2244 55.317 15.0574 52.1223C15.9373 48.8281 17.5444 45.0222 19.8787 40.7047C21.6712 37.4101 22.8861 34.6968 23.5237 32.5648C24.208 30.3332 24.1529 28.1217 23.3584 25.9305C22.246 22.8628 20.0988 20.8314 16.9169 19.8364C13.7349 18.8415 10.054 19.1018 5.87397 20.6175C-2.04603 23.4893 -7.00301 28.4686 -8.99699 35.5553L-22.1698 32.5219C-20.5791 27.069 -17.7009 22.3064 -13.5353 18.2339C-9.39618 14.0884 -3.95328 10.7925 2.79338 8.34608C11.0067 5.36789 18.1823 4.7908 24.32 6.61481C30.5046 8.33919 34.7226 12.3056 36.9738 18.5141C38.0597 21.5088 38.4998 24.3244 38.2942 26.961C38.1619 29.5709 37.6904 31.932 36.8798 34.0441C36.0426 36.0832 34.8582 38.5375 33.3264 41.407C31.4402 44.9008 30.1448 47.8499 29.4401 50.2542C28.8087 52.6319 28.9697 55.1355 29.9232 57.765L15.9532 62.8306ZM32.4881 86.4631C29.9214 87.3938 27.5034 87.3615 25.2341 86.3662C23.0116 85.2713 21.4634 83.5186 20.5894 81.1082C19.7154 78.6979 19.7937 76.3967 20.8243 74.2048C21.9283 71.9863 23.7637 70.4117 26.3303 69.4811C28.8237 68.577 31.1683 68.6359 33.3643 69.6578C35.6337 70.6531 37.2053 72.3559 38.0794 74.7663C38.9534 77.1766 38.8516 79.5276 37.7741 81.8191C36.7434 84.011 34.9814 85.559 32.4881 86.4631Z" fill="white"/>
</g>
<g style="mix-blend-mode:overlay" opacity="0.4">
<path d="M-20.8244 105.949C-22.8846 104.614 -24.2846 103.055 -25.0244 101.27C-25.7775 99.423 -26.3721 97.08 -26.8082 94.2415C-27.1357 92.0716 -27.5272 90.3768 -27.9829 89.1571C-28.4519 87.8744 -29.2587 86.8622 -30.4032 86.1207C-32.0057 85.0826 -33.7247 84.8934 -35.5605 85.5531C-37.3962 86.2129 -39.0213 87.6344 -40.4358 89.8179C-43.116 93.9549 -43.6696 98.0284 -42.0967 102.038L-49.3129 105.276C-50.4969 102.171 -50.8364 98.9324 -50.3317 95.5614C-49.8651 92.1656 -48.4902 88.7057 -46.2071 85.1816C-43.4277 80.8914 -40.2843 78.0878 -36.777 76.7708C-33.283 75.3907 -29.9144 75.7512 -26.6714 77.8522C-25.1072 78.8656 -23.9074 80.0235 -23.0721 81.326C-22.2119 82.5903 -21.5979 83.8582 -21.2301 85.1297C-20.9004 86.3766 -20.586 87.9398 -20.2871 89.8194C-19.9329 92.1154 -19.4955 93.9486 -18.9751 95.3191C-18.4298 96.6512 -17.4704 97.7622 -16.0969 98.652L-20.8244 105.949ZM-4.76419 111.133C-5.63276 112.474 -6.77211 113.313 -8.18225 113.65C-9.60572 113.924 -10.947 113.653 -12.206 112.838C-13.4651 112.022 -14.2413 110.921 -14.5347 109.535C-14.8033 108.11 -14.5033 106.727 -13.6348 105.386C-12.791 104.084 -11.6765 103.283 -10.2911 102.984C-8.88101 102.647 -7.54642 102.886 -6.28737 103.702C-5.02832 104.518 -4.24543 105.65 -3.93868 107.1C-3.64528 108.486 -3.92044 109.831 -4.76419 111.133Z" fill="white"/>
</g>
<g style="mix-blend-mode:overlay" opacity="0.6">
<path d="M97.6332 -11.0524C96.2238 -12.238 95.3269 -13.5295 94.9425 -14.9268C94.554 -16.3723 94.3298 -18.1719 94.2697 -20.3256C94.2281 -21.9715 94.0945 -23.2697 93.869 -24.2201C93.6394 -25.2187 93.1331 -26.0474 92.3501 -26.7061C91.254 -27.6282 89.9919 -27.9292 88.5638 -27.6092C87.1357 -27.2891 85.7935 -26.3823 84.537 -24.8887C82.1563 -22.0587 81.3645 -19.0779 82.1617 -15.9461L76.488 -14.2083C75.8961 -16.6305 75.945 -19.0728 76.6349 -21.5352C77.2987 -24.0196 78.6447 -26.4672 80.6727 -28.8779C83.1416 -31.8127 85.7429 -33.6069 88.4766 -34.2604C91.2063 -34.9622 93.6803 -34.3799 95.8987 -32.5137C96.9688 -31.6135 97.7541 -30.6397 98.2545 -29.5922C98.777 -28.5709 99.1159 -27.5698 99.2713 -26.5889C99.4005 -25.63 99.4889 -24.437 99.5363 -23.0099C99.586 -21.2677 99.7407 -19.8622 100 -18.7935C100.282 -17.751 100.893 -16.8345 101.832 -16.0441L97.6332 -11.0524ZM109.106 -5.69671C108.334 -4.7796 107.408 -4.26122 106.327 -4.14157C105.242 -4.07008 104.268 -4.39661 103.407 -5.12115C102.546 -5.8457 102.071 -6.73772 101.981 -7.79722C101.914 -8.88293 102.266 -9.88434 103.038 -10.8015C103.787 -11.6924 104.692 -12.1846 105.751 -12.278C106.832 -12.3976 107.803 -12.0952 108.664 -11.3706C109.526 -10.6461 110.003 -9.73 110.096 -8.62234C110.185 -7.56284 109.855 -6.58763 109.106 -5.69671Z" fill="white"/>
</g>
</g>
</g>
<defs>
<clipPath id="clip0">
<rect width="570" height="197" fill="white"/>
</clipPath>
</defs>
</svg>

<svg xmlns="http://www.w3.org/2000/svg" width="570" height="197" fill="none" xmlns:v="https://vecta.io/nano"><g clip-path="url(#A)"><g fill="#ffc856"><path stroke="#007550" stroke-width="10" d="M5 5h560v187H5z"/><path d="M0 0h570v197H0z"/></g><g style="mix-blend-mode:multiply" opacity=".1"><path d="M4.162 122.84l10.056-2.695 4.788 24.572-6.704 1.796-8.14-23.673zm15.042 36.023c-1.478.396-2.844.272-4.098-.372-1.228-.7-2.02-1.703-2.38-3.04a4.44 4.44 0 0 1 .569-3.717c.728-1.175 1.85-1.966 3.363-2.372s2.88-.28 4.098.373c1.21.62 1.992 1.597 2.35 2.934s.16 2.616-.595 3.837c-.728 1.176-1.83 1.96-3.31 2.357z" fill="#001e20"/></g><g style="mix-blend-mode:multiply" opacity=".04"><path d="M310.577 113.226L334.9 127.27l-37.738 56.003-16.216-9.362 29.63-60.684zm-40.024 97.41c-3.574-2.064-5.943-4.907-7.106-8.53-1.027-3.657-.607-7.102 1.26-10.337s4.592-5.235 8.174-6.004c3.632-.854 7.278-.224 10.94 1.9s6.03 4.957 7.106 8.53c1.126 3.487.755 6.847-1.112 10.08s-4.685 5.296-8.453 6.184c-3.63.854-7.234.25-10.81-1.814z" fill="#001e20"/></g><g style="mix-blend-mode:overlay" opacity=".6"><g style="mix-blend-mode:overlay" opacity=".5"><path d="M445.985 164.84c4.033-8.435 9.238-14.485 15.616-18.152 6.61-3.748 15.166-7.14 25.673-10.175 8.035-2.3 14.245-4.607 18.628-6.925 4.615-2.398 8.043-5.94 10.284-10.626 3.136-6.56 3-13.145-.38-19.755s-9.554-12.052-18.492-16.326c-16.935-8.098-32.59-8.196-46.966-.294L434.6 56.917c11.15-5.99 23.213-8.858 36.19-8.6 13.053.1 26.793 3.6 41.22 10.5 17.563 8.398 29.69 18.898 36.38 31.5 6.922 12.52 7.208 25.42.86 38.694-3.062 6.404-6.848 11.502-11.36 15.294-4.353 3.867-8.84 6.806-13.464 8.817-4.548 1.856-10.298 3.808-17.25 5.856-8.498 2.46-15.208 5-20.13 7.646-4.764 2.71-8.49 6.878-11.18 12.5l-29.873-14.284zm-11.72 63.2c-5.49-2.624-9.215-6.516-11.178-11.677-1.732-5.242-1.366-10.44 1.1-15.594s6.243-8.625 11.336-10.41c5.25-1.712 10.618-1.255 16.107 1.37 5.33 2.55 8.9 6.367 10.707 11.453 1.964 5.16 1.713 10.318-.75 15.472s-6.36 8.665-11.684 10.533c-5.093 1.786-10.305 1.405-15.636-1.145z" fill="#fff"/></g><g style="mix-blend-mode:overlay" opacity=".4"><path d="M343.105 42.862c-.925-2.274-1.18-4.354-.764-6.24.44-1.946 1.294-4.207 2.562-6.784.974-1.966 1.623-3.58 1.948-4.84.35-1.32.268-2.612-.246-3.875-.72-1.77-2.02-2.908-3.903-3.418s-4.03-.275-6.44.705c-4.566 1.857-7.352 4.88-8.36 9.068l-7.77-1.477c.808-3.224 2.383-6.073 4.727-8.548 2.327-2.517 5.436-4.566 9.325-6.148 4.735-1.926 8.918-2.425 12.547-1.496 3.655.87 6.2 3.094 7.666 6.673.702 1.727 1.023 3.363.962 4.91-.02 1.53-.24 2.92-.668 4.173-.443 1.21-1.08 2.673-1.912 4.385-1.024 2.085-1.715 3.84-2.073 5.26-.316 1.404-.166 2.864.45 4.38l-8.054 3.276zm10.2 13.446c-1.48.602-2.895.637-4.244.106-1.324-.6-2.27-1.58-2.834-2.97s-.57-2.737-.017-4.04c.595-1.322 1.633-2.284 3.113-2.886 1.437-.585 2.81-.603 4.116-.055 1.35.53 2.307 1.49 2.872 2.88s.558 2.767-.02 4.13c-.554 1.305-1.55 2.25-2.986 2.834z" fill="#fff"/></g><g style="mix-blend-mode:overlay" opacity=".6"><path d="M507.215 14.767c-.477-1.78-.472-3.35.013-4.717.51-1.407 1.355-3.01 2.54-4.81.908-1.373 1.542-2.514 1.902-3.422a4.48 4.48 0 0 0 .178-2.908c-.37-1.384-1.233-2.353-2.587-2.908s-2.974-.58-4.86-.075c-3.573.957-5.928 2.947-7.068 5.972L491.686.072c.902-2.325 2.34-4.3 4.316-5.923 1.967-1.657 4.472-2.893 7.515-3.708 3.704-.992 6.864-.974 9.48.056 2.64.988 4.334 2.882 5.085 5.682.36 1.35.448 2.6.258 3.744-.156 1.136-.452 2.15-.886 3.044-.443.86-1.054 1.89-1.832 3.086-.957 1.457-1.635 2.698-2.034 3.723-.366 1.016-.4 2.117-.072 3.303l-6.3 1.688zm6.34 10.96c-1.157.3-2.214.205-3.17-.316-.93-.563-1.54-1.388-1.833-2.475s-.17-2.09.364-3c.566-.93 1.43-1.548 2.586-1.858 1.125-.3 2.148-.187 3.07.343.955.52 1.578 1.325 1.87 2.412a3.89 3.89 0 0 1-.4 3.073c-.533.92-1.362 1.53-2.487 1.832z" fill="#fff"/></g></g><g style="mix-blend-mode:overlay" opacity=".3"><g style="mix-blend-mode:overlay" opacity=".6"><path d="M56.152 176.48c-3.12-2.452-5.143-5.17-6.07-8.15-.94-3.085-1.55-6.943-1.835-11.576-.207-3.54-.588-6.327-1.14-8.357a9.64 9.64 0 0 0-3.448-5.244c-2.426-1.908-5.165-2.466-8.217-1.674s-5.877 2.84-8.476 6.145c-4.924 6.264-6.415 12.74-4.475 19.425l-12.092 4.148C8.95 166.023 8.88 160.76 10.2 155.41c1.252-5.397 3.975-10.763 8.17-16.1 5.106-6.495 10.58-10.545 16.418-12.147 5.827-1.707 11.196-.63 16.106 3.23 2.368 1.862 4.13 3.902 5.28 6.122 1.198 2.162 2 4.293 2.404 6.394.347 2.055.622 4.618.827 7.687.232 3.748.665 6.763 1.3 9.046.68 2.224 2.062 4.154 4.14 5.79l-8.685 11.048zm25.086 10.71c-1.596 2.03-3.553 3.213-5.873 3.548-2.332.23-4.45-.402-6.357-1.9s-2.993-3.385-3.26-5.66c-.222-2.333.464-4.514 2.06-6.544 1.55-1.972 3.462-3.097 5.736-3.373 2.32-.335 4.432.246 6.34 1.745s3 3.437 3.28 5.815c.268 2.275-.373 4.398-1.923 6.37z" fill="#fff"/></g><g style="mix-blend-mode:overlay" opacity=".5"><path d="M133.364 147.043c-1.523-9.224-.72-17.164 2.41-23.822 3.272-6.857 8.346-14.538 15.222-23.043 5.27-6.485 9.04-11.933 11.307-16.343 2.4-4.61 3.192-9.476 2.346-14.6-1.184-7.174-5.058-12.5-11.622-15.98s-14.734-4.41-24.51-2.797C109.995 53.517 97.104 62.4 89.844 77.11L62.226 65.09c5.7-11.295 13.96-20.553 24.747-27.774 10.76-7.39 24.027-12.39 39.805-14.994 19.207-3.17 35.16-1.506 47.862 4.995 12.843 6.302 20.464 16.712 22.86 31.23 1.156 7.003.97 13.35-.556 19.042-1.355 5.663-3.352 10.643-6 14.94-2.666 4.125-6.262 9.017-10.79 14.678-5.558 6.883-9.6 12.815-12.125 17.794-2.353 4.95-3.023 10.5-2.007 16.65l-32.67 5.394zm26.573 58.518c-6.002.99-11.285-.067-15.85-3.174-4.422-3.305-7.098-7.777-8.028-13.413s.18-10.646 3.332-15.027c3.324-4.41 7.987-7.11 14-8.1 5.83-.962 10.943.124 15.336 3.26 4.565 3.106 7.312 7.478 8.243 13.115s-.252 10.745-3.548 15.325c-3.152 4.38-7.644 7.052-13.475 8.015z" fill="#fff"/></g><g style="mix-blend-mode:overlay" opacity=".6"><path d="M15.953 62.83c-1.43-3.944-1.73-7.514-.896-10.708.88-3.294 2.487-7.1 4.82-11.418 1.793-3.295 3.007-6.008 3.645-8.14a10.2 10.2 0 0 0-.165-6.634c-1.112-3.068-3.26-5.1-6.442-6.094s-6.863-.735-11.043.78c-7.92 2.872-12.877 7.85-14.87 14.938l-13.173-3.033c1.59-5.453 4.47-10.216 8.635-14.288 4.14-4.145 9.582-7.44 16.33-9.888 8.213-2.978 15.39-3.555 21.527-1.73 6.185 1.724 10.403 5.69 12.654 11.9 1.086 2.995 1.526 5.8 1.32 8.447-.132 2.6-.604 4.97-1.414 7.083-.837 2.04-2.022 4.493-3.553 7.363-1.886 3.494-3.182 6.443-3.886 8.847-.63 2.378-.47 4.88.483 7.51l-13.97 5.066zm16.535 23.633c-2.567.93-4.985.898-7.254-.097-2.222-1.095-3.77-2.848-4.645-5.258s-.796-4.712.235-6.903c1.104-2.22 2.94-3.793 5.506-4.724 2.493-.904 4.838-.845 7.034.177 2.27.995 3.84 2.698 4.715 5.11s.772 4.76-.305 7.053c-1.03 2.192-2.793 3.74-5.286 4.644z" fill="#fff"/></g><g style="mix-blend-mode:overlay" opacity=".4"><path d="M-20.824 105.95c-2.06-1.335-3.46-2.894-4.2-4.68-.753-1.847-1.348-4.2-1.784-7.028-.328-2.17-.72-3.865-1.175-5.084-.47-1.283-1.276-2.295-2.42-3.036-1.602-1.038-3.322-1.227-5.157-.568s-3.46 2.08-4.875 4.265c-2.68 4.137-3.234 8.21-1.66 12.22l-7.216 3.238c-1.184-3.105-1.523-6.344-1.02-9.715.467-3.396 1.84-6.856 4.125-10.38 2.78-4.3 5.923-7.094 9.43-8.41 3.494-1.38 6.863-1.02 10.106 1.08 1.564 1.013 2.764 2.17 3.6 3.474.86 1.264 1.474 2.532 1.842 3.804.33 1.247.644 2.8.943 4.7.354 2.296.792 4.13 1.312 5.5.545 1.332 1.505 2.443 2.878 3.333l-4.727 7.297zm16.06 5.184c-.87 1.34-2.008 2.18-3.418 2.517-1.423.274-2.765.003-4.024-.812s-2.035-1.917-2.33-3.303c-.27-1.425.03-2.808.9-4.15.844-1.302 1.958-2.103 3.344-2.402 1.4-.337 2.745-.098 4.004.718s2.042 1.948 2.35 3.398c.293 1.386.018 2.73-.826 4.033z" fill="#fff"/></g><g style="mix-blend-mode:overlay" opacity=".6"><path d="M97.633-11.052c-1.41-1.186-2.306-2.477-2.69-3.874-.388-1.445-.613-3.245-.673-5.4-.042-1.646-.175-2.944-.4-3.894-.23-1-.736-1.827-1.52-2.486-1.096-.922-2.358-1.223-3.786-.903s-2.77 1.227-4.027 2.72c-2.38 2.83-3.172 5.81-2.375 8.943l-5.674 1.738c-.592-2.422-.543-4.865.147-7.327.664-2.484 2-4.932 4.038-7.343 2.47-2.935 5.07-4.73 7.804-5.382 2.73-.702 5.204-.12 7.422 1.747 1.07.9 1.855 1.874 2.356 2.922.523 1.02.86 2.022 1.017 3.003.13.96.218 2.152.265 3.58.05 1.742.204 3.148.464 4.216.282 1.043.893 1.96 1.832 2.75l-4.2 4.992zm11.473 5.356c-.772.917-1.698 1.435-2.78 1.555-1.085.07-2.06-.255-2.92-.98s-1.336-1.617-1.426-2.676c-.067-1.086.285-2.087 1.057-3.004.75-.89 1.654-1.383 2.713-1.476 1.08-.12 2.052.183 2.913.907s1.34 1.64 1.432 2.748c.09 1.06-.24 2.035-1 2.926z" fill="#fff"/></g></g></g><defs><clipPath id="A"><path fill="#fff" d="M0 0h570v197H0z"/></clipPath></defs></svg>
